src/img/share.svg

<svg width="24" height="24" xmlns="http://www.w3.org/2000/svg" fill-rule="evenodd" clip-rule="evenodd"><path d="M14 4h-13v18h20v-11h1v12h-22v-20h14v1zm10 5h-1v-6.293l-11.646 11.647-.708-.708 11.647-11.646h-6.293v-1h8v8z"/></svg>

<svg xmlns="http://www.w3.org/2000/svg" width="24" height="24" fill-rule="evenodd" clip-rule="evenodd"><path d="M14 4H1v18h20V11h1v12H0V3h14v1zm10 5h-1V2.707L11.354 14.354l-.708-.708L22.293 2H16V1h8v8z"/></svg>
